X: 141
T: Xiu jixiang hua wen The hat with the spiral ornament on the top
L: 1/8
M: 2/4
K: C
G,2D2 [I:setbarnb 1]| 
D E D G, | 
G2A c | 
G4 | 
E GA2 | 
cG2D | 
G D E G | 
D4 | 
G,3D | 
D E D A, | 
G2A c | 
C4 | 
A, CD2 | 
D EG2 | 
G, A, C D | 
G,4 | 
C A, G, G | 
D2G2 | 
C A, G, G | 
D4 | 
D EG2 | 
E G E D | 
G, A, C D | 
G,4 | 
C A,/ A,/ G, G | 
D4 | 
C A,/ A,/ G, G | 
D4 | 
D EG2 | 
E G E D | 
G, A, C D | 
G,4 | 
C A, G, G | 
D2G2 | 
C A, G, G | 
D4 | 
D EG2 | 
E G E D | 
G, A, C D | 
G,4 | 
C A,/ A,/ G, G | 
D4 | 
C A,/ A,/ G, G | 
D4 | 
D EG2 | 
E G E D | 
G, A, C D | 
G,4 |]

@@@ Tune index: 8809
